X:99
T:Waltz
O:No 99 Wm Clarke MS  Feltwell, Norfolk
I:abc2nwc
M:3/4
L:1/8
K:C
ef|g2c'b ag|gf ef d2|G2Bc dB|c2e2ef|
g2c'b ag|gf ef d2|G2Bc dB|c4:|
|:ef|d4^fg|e4ag|^fg ab c'a|g2z2ef|
g2c'b ag|gf ef d2|G2Bc dB|c4:|

